assets/icons/qvision/flip_to_front.svg

<svg xmlns="http://www.w3.org/2000/svg" height="24" viewBox="0 0 24 24" width="24"><path d="M0 0h24v24H0z" fill="none"/><path d="M3 13h2v-2H3v2zm0 4h2v-2H3v2zm2 4v-2H3c0 1.1.89 2 2 2zM3 9h2V7H3v2zm12 12h2v-2h-2v2zm4-18H9c-1.11 0-2 .9-2 2v10c0 1.1.89 2 2 2h10c1.1 0 2-.9 2-2V5c0-1.1-.9-2-2-2zm0 12H9V5h10v10zm-8 6h2v-2h-2v2zm-4 0h2v-2H7v2z"/></svg>

<svg width="24" height="24" viewBox="0 0 24 24" fill="none" xmlns="http://www.w3.org/2000/svg">
<g clip-path="url(#clip0_147_4229)">
<path d="M3 13H5V11H3V13ZM3 17H5V15H3V17ZM5 21V19H3C3 20.1 3.89 21 5 21ZM3 9H5V7H3V9ZM15 21H17V19H15V21ZM19 3H9C7.89 3 7 3.9 7 5V15C7 16.1 7.89 17 9 17H19C20.1 17 21 16.1 21 15V5C21 3.9 20.1 3 19 3ZM19 15H9V5H19V15ZM11 21H13V19H11V21ZM7 21H9V19H7V21Z" fill="#323232"/>
</g>
<defs>
<clipPath id="clip0_147_4229">
<rect width="24" height="24" fill="white"/>
</clipPath>
</defs>
</svg>
